_dev/icon.svg

<?xml version="1.0" encoding="UTF-8" standalone="no"?>
<svg
   width="512"
   height="512"
   version="1.1"
   id="svg60"
   sodipodi:docname="icon.svg"
   inkscape:version="1.2.1 (9c6d41e410, 2022-07-14)"
   inkscape:export-filename="icon.png"
   inkscape:export-xdpi="96"
   inkscape:export-ydpi="96"
   xmlns:inkscape="http://www.inkscape.org/namespaces/inkscape"
   xmlns:sodipodi="http://sodipodi.sourceforge.net/DTD/sodipodi-0.dtd"
   xmlns:xlink="http://www.w3.org/1999/xlink"
   xmlns="http://www.w3.org/2000/svg"
   xmlns:svg="http://www.w3.org/2000/svg">
  <sodipodi:namedview
     id="namedview62"
     pagecolor="#ffffff"
     bordercolor="#000000"
     borderopacity="0.25"
     inkscape:showpageshadow="2"
     inkscape:pageopacity="0.0"
     inkscape:pagecheckerboard="0"
     inkscape:deskcolor="#d1d1d1"
     showgrid="false"
     inkscape:zoom="1.1013158"
     inkscape:cx="368.64994"
     inkscape:cy="329.60573"
     inkscape:window-width="1920"
     inkscape:window-height="1017"
     inkscape:window-x="-8"
     inkscape:window-y="-8"
     inkscape:window-maximized="1"
     inkscape:current-layer="svg60" />
  <defs
     id="defs28">
    <linearGradient
       id="lg0">
      <stop
         style="stop-color:#ffffe0;stop-opacity:1"
         offset="0"
         id="stop2" />
      <stop
         style="stop-color:#ff0;stop-opacity:1"
         offset="1"
         id="stop4" />
    </linearGradient>
    <linearGradient
       id="lg1">
      <stop
         style="stop-color:#00f;stop-opacity:1"
         offset="0"
         id="stop7" />
      <stop
         style="stop-color:#e0e0ff;stop-opacity:1"
         offset="1"
         id="stop9" />
    </linearGradient>
    <linearGradient
       id="lg2">
      <stop
         style="stop-color:#fff;stop-opacity:1"
         offset="0"
         id="stop12" />
      <stop
         style="stop-color:#fff;stop-opacity:0"
         offset="1"
         id="stop14" />
    </linearGradient>
    <linearGradient
       id="lg3">
      <stop
         style="stop-color:#f00;stop-opacity:1"
         offset="0"
         id="stop17" />
      <stop
         offset="1"
         style="stop-color:#ffe0e0;stop-opacity:1"
         id="stop19" />
    </linearGradient>
    <linearGradient
       xlink:href="#lg2"
       id="lg4"
       gradientUnits="userSpaceOnUse"
       gradientTransform="matrix(0.545556,0,0,0.350255,-38.51666,72.6073)"
       x1="139.43112"
       y1="520.74255"
       x2="222.73912"
       y2="520.74255" />
    <linearGradient
       xlink:href="#lg3"
       id="lg5"
       gradientUnits="userSpaceOnUse"
       gradientTransform="matrix(1.000031,0,0,1.000031,-45.00832,-319.1057)"
       x1="221.01576"
       y1="674.0849"
       x2="119.92342"
       y2="474.09103" />
    <linearGradient
       xlink:href="#lg2"
       id="lg6"
       gradientUnits="userSpaceOnUse"
       gradientTransform="matrix(0.545558,0,0,0.350255,91.4834,-57.3926)"
       x1="139.62971"
       y1="520.74225"
       x2="222.73819"
       y2="520.74225" />
    <linearGradient
       xlink:href="#lg1"
       id="lg7"
       gradientUnits="userSpaceOnUse"
       gradientTransform="matrix(1.334164,0,0,1.334164,-90.28301,-537.514)"
       x1="296.20334"
       y1="571.52942"
       x2="220.84492"
       y2="421.62283" />
    <linearGradient
       xlink:href="#lg2"
       id="lg8"
       gradientUnits="userSpaceOnUse"
       gradientTransform="matrix(0.545558,0,0,0.350255,236.4833,37.6074)"
       x1="139.43103"
       y1="520.74225"
       x2="222.73837"
       y2="520.74225" />
    <linearGradient
       xlink:href="#lg0"
       id="lg9"
       gradientUnits="userSpaceOnUse"
       gradientTransform="matrix(1.334164,0,0,1.334164,54.71699,-442.514)"
       x1="221.02206"
       y1="421.6228"
       x2="296.72556"
       y2="571.52942" />
  </defs>
  <rect
     style="fill:#ffffff"
     id="rect541"
     width="512"
     height="512"
     x="0"
     y="0" />
  <g
     style="display:inline"
     id="g38"
     transform="matrix(1.0339452,0,0,1.0339452,-15.860577,45.883769)">
    <path
       style="fill:url(#lg5);fill-opacity:1;fill-rule:nonzero;stroke:none;stroke-width:38;stroke-linecap:butt;stroke-linejoin:round;stroke-miterlimit:20;stroke-dasharray:none;stroke-dashoffset:0;stroke-opacity:1;marker-start:none"
       d="m 69.33962,154.99997 h 111.32077 c 24.56415,0 44.33961,19.77547 44.33961,44.33962 v 111.32078 c 0,24.56414 -19.77546,44.33961 -44.33961,44.33961 H 69.33962 C 44.775476,354.99998 25,335.22451 25,310.66037 V 199.33959 c 0,-24.56415 19.775476,-44.33962 44.33962,-44.33962 z"
       id="path30" />
    <path
       style="opacity:0.25;fill:#ff0000;fill-opacity:1;fill-rule:evenodd;stroke:none;stroke-width:1px;stroke-linecap:butt;stroke-linejoin:miter;stroke-opacity:1"
       d="m 182.05654,230.00562 c -48.53089,0.52516 -61.79585,56.69111 -104.89889,57.24964 -18.6358,0.23541 -34.530378,-12.5544 -52.157599,-27.69878 v 51.65226 c 0,24.24869 19.796853,43.79127 44.361069,43.79124 h 111.31955 c 24.56422,0 44.31938,-19.54253 44.31938,-43.79124 v -70.25531 c -12.03236,-6.60668 -25.96585,-11.13587 -42.94351,-10.94781 z"
       id="path32" />
    <rect
       style="fill:url(#lg4);fill-opacity:1;fill-rule:nonzero;stroke:none;stroke-width:20;stroke-linecap:butt;stroke-linejoin:miter;stroke-miterlimit:4;stroke-dasharray:none;stroke-dashoffset:0;stroke-opacity:0.25098"
       width="33"
       height="150"
       x="50"
       y="179.99998"
       ry="17.032595"
       rx="17.032595"
       id="rect34" />
    <path
       style="opacity:1;fill:none;fill-opacity:0.501961;fill-rule:nonzero;stroke:#800000;stroke-width:12.686;stroke-linecap:butt;stroke-linejoin:round;stroke-miterlimit:20;stroke-dasharray:none;stroke-dashoffset:0;stroke-opacity:0.501961;marker-start:none"
       d="m 69.46811,161.34322 h 111.19211 c 21.12816,0 37.9969,16.87873 37.9969,38.00595 v 111.32031 c 0,21.13499 -16.86549,37.98752 -37.9969,37.98752 H 69.3399 c -21.131502,0 -37.9969,-16.86042 -37.9969,-37.98752 V 199.31104 c 0,-21.13196 16.99051,-37.96782 38.12511,-37.96782 z"
       id="path36" />
  </g>
  <g
     style="display:inline"
     id="g48"
     transform="matrix(1.0339452,0,0,1.0339452,-15.860577,45.883769)">
    <path
       style="fill:url(#lg7);fill-opacity:1;fill-rule:nonzero;stroke:none;stroke-width:38.281;stroke-linecap:butt;stroke-linejoin:miter;stroke-miterlimit:4;stroke-dasharray:none;stroke-dashoffset:0;stroke-opacity:0.376471;marker-start:none"
       d="M 199.33962,24.99998 H 310.6604 c 24.56415,0 44.3396,19.77547 44.3396,44.3396 v 111.32079 c 0,24.56414 -19.77545,44.33961 -44.3396,44.33961 H 199.33962 C 174.77548,224.99998 155,205.22451 155,180.66037 V 69.33958 c 0,-24.56413 19.77548,-44.3396 44.33962,-44.3396 z"
       id="path40" />
    <path
       style="opacity:0.25;fill:#0000ff;fill-opacity:1;fill-rule:evenodd;stroke:none;stroke-width:1px;stroke-linecap:butt;stroke-linejoin:miter;stroke-opacity:1"
       d="M 312.05649,100.00562 C 263.5256,100.5308 250.26065,156.69674 207.1576,157.25527 188.52179,157.49067 172.62722,144.70086 155,129.55648 v 51.65227 c 0,24.24868 19.79685,43.79126 44.36106,43.79123 h 111.31957 c 24.5642,0 44.31937,-19.54253 44.31937,-43.79123 v -70.25531 c -12.03236,-6.60669 -25.96585,-11.13588 -42.94351,-10.94782 z"
       id="path42" />
    <rect
       style="fill:url(#lg6);fill-opacity:1;fill-rule:nonzero;stroke:none;stroke-width:20;stroke-linecap:butt;stroke-linejoin:miter;stroke-miterlimit:4;stroke-dasharray:none;stroke-dashoffset:0;stroke-opacity:0.25098"
       width="33"
       height="150"
       x="180"
       y="49.999981"
       ry="17.032595"
       rx="17.032595"
       id="rect44" />
    <path
       d="m 199.46811,31.34322 h 111.19211 c 21.12816,0 37.9969,16.87873 37.9969,38.00595 v 111.32031 c 0,21.13499 -16.86549,37.98752 -37.9969,37.98752 H 199.3399 c -21.1315,0 -37.9969,-16.86042 -37.9969,-37.98752 V 69.31104 c 0,-21.13196 16.99051,-37.96782 38.12511,-37.96782 z"
       style="display:inline;opacity:1;fill:none;fill-opacity:0.501961;fill-rule:nonzero;stroke:#000080;stroke-width:12.686;stroke-linecap:butt;stroke-linejoin:round;stroke-miterlimit:20;stroke-dasharray:none;stroke-dashoffset:0;stroke-opacity:0.501961;marker-start:none"
       id="path46" />
  </g>
  <g
     id="g58"
     transform="matrix(1.0339452,0,0,1.0339452,-15.860577,45.883769)">
    <path
       style="display:inline;fill:url(#lg9);fill-opacity:1;fill-rule:nonzero;stroke:none;stroke-width:38.2814;stroke-linecap:butt;stroke-linejoin:miter;stroke-miterlimit:4;stroke-dasharray:none;stroke-dashoffset:0;stroke-opacity:0.376471;marker-start:none"
       d="m 344.33962,119.99997 h 111.32077 c 24.56415,0 44.33961,19.77547 44.33961,44.33962 v 111.32078 c 0,24.56414 -19.77546,44.33961 -44.33961,44.33961 H 344.33962 C 319.77547,319.99998 300,300.22451 300,275.66037 V 164.33959 c 0,-24.56415 19.77547,-44.33962 44.33962,-44.33962 z"
       id="path50" />
    <path
       style="display:inline;opacity:0.25;fill:#c0c000;fill-opacity:1;fill-rule:evenodd;stroke:none;stroke-width:1px;stroke-linecap:butt;stroke-linejoin:miter;stroke-opacity:1"
       d="M 457.05649,195.00562 C 408.5256,195.53079 395.26065,251.69673 352.1576,252.25526 333.52179,252.49067 317.62722,239.70086 300,224.55647 v 51.65228 c 0,24.24868 19.79685,43.79126 44.36106,43.79123 H 455.68063 C 480.24484,319.99998 500,300.45745 500,276.20875 v -70.25532 c -12.03236,-6.60669 -25.96584,-11.13587 -42.94351,-10.94781 z"
       id="path52" />
    <rect
       style="display:inline;fill:url(#lg8);fill-opacity:1;fill-rule:nonzero;stroke:none;stroke-width:20;stroke-linecap:butt;stroke-linejoin:miter;stroke-miterlimit:4;stroke-dasharray:none;stroke-dashoffset:0;stroke-opacity:0.25098"
       width="33"
       height="150"
       x="325"
       y="144.99998"
       ry="17.032595"
       rx="17.032595"
       id="rect54" />
    <path
       style="display:inline;opacity:1;fill:none;fill-opacity:0.501961;fill-rule:nonzero;stroke:#808000;stroke-width:12.686;stroke-linecap:butt;stroke-linejoin:round;stroke-miterlimit:20;stroke-dasharray:none;stroke-dashoffset:0;stroke-opacity:0.501961;marker-start:none"
       d="m 344.46811,126.34322 h 111.19211 c 21.12816,0 37.9969,16.87873 37.9969,38.00595 v 111.32031 c 0,21.13499 -16.86549,37.98752 -37.9969,37.98752 H 344.3399 c -21.1315,0 -37.9969,-16.86042 -37.9969,-37.98752 V 164.31104 c 0,-21.13196 16.99051,-37.96782 38.12511,-37.96782 z"
       id="path56" />
  </g>
</svg>

<?xml version="1.0" encoding="UTF-8"?>
<svg width="512" height="512" version="1.1" xmlns="http://www.w3.org/2000/svg" xmlns:xlink="http://www.w3.org/1999/xlink">
 <defs>
  <linearGradient id="lg2">
   <stop stop-color="#fff" offset="0"/>
   <stop stop-color="#fff" stop-opacity="0" offset="1"/>
  </linearGradient>
  <linearGradient id="lg4" x1="139.43" x2="222.74" y1="520.74" y2="520.74" gradientTransform="matrix(.54556 0 0 .35026 -38.517 72.607)" gradientUnits="userSpaceOnUse" xlink:href="#lg2"/>
  <linearGradient id="lg5" x1="221.02" x2="119.92" y1="674.08" y2="474.09" gradientTransform="matrix(1 0 0 1 -45.008 -319.11)" gradientUnits="userSpaceOnUse">
   <stop stop-color="#f00" offset="0"/>
   <stop stop-color="#ffe0e0" offset="1"/>
  </linearGradient>
  <linearGradient id="lg6" x1="139.63" x2="222.74" y1="520.74" y2="520.74" gradientTransform="matrix(.54556 0 0 .35026 91.483 -57.393)" gradientUnits="userSpaceOnUse" xlink:href="#lg2"/>
  <linearGradient id="lg7" x1="296.2" x2="220.84" y1="571.53" y2="421.62" gradientTransform="matrix(1.3342 0 0 1.3342 -90.283 -537.51)" gradientUnits="userSpaceOnUse">
   <stop stop-color="#00f" offset="0"/>
   <stop stop-color="#e0e0ff" offset="1"/>
  </linearGradient>
  <linearGradient id="lg8" x1="139.43" x2="222.74" y1="520.74" y2="520.74" gradientTransform="matrix(.54556 0 0 .35026 236.48 37.607)" gradientUnits="userSpaceOnUse" xlink:href="#lg2"/>
  <linearGradient id="lg9" x1="221.02" x2="296.73" y1="421.62" y2="571.53" gradientTransform="matrix(1.3342 0 0 1.3342 54.717 -442.51)" gradientUnits="userSpaceOnUse">
   <stop stop-color="#ffffe0" offset="0"/>
   <stop stop-color="#ff0" offset="1"/>
  </linearGradient>
 </defs>
 <rect width="512" height="512" fill="#fff"/>
 <g transform="matrix(1.0339 0 0 1.0339 -15.861 45.884)">
  <g>
   <path d="m69.34 155h111.32c24.564 0 44.34 19.775 44.34 44.34v111.32c0 24.564-19.775 44.34-44.34 44.34h-111.32c-24.564 0-44.34-19.775-44.34-44.34v-111.32c0-24.564 19.775-44.34 44.34-44.34z" fill="url(#lg5)"/>
   <path d="m182.06 230.01c-48.531 0.52516-61.796 56.691-104.9 57.25-18.636 0.23541-34.53-12.554-52.158-27.699v51.652c0 24.249 19.797 43.791 44.361 43.791h111.32c24.564 0 44.319-19.543 44.319-43.791v-70.255c-12.032-6.6067-25.966-11.136-42.944-10.948z" fill="#f00" fill-rule="evenodd" opacity=".25"/>
   <rect x="50" y="180" width="33" height="150" rx="17.033" ry="17.033" fill="url(#lg4)"/>
  </g>
  <path d="m69.468 161.34h111.19c21.128 0 37.997 16.879 37.997 38.006v111.32c0 21.135-16.865 37.988-37.997 37.988h-111.32c-21.132 0-37.997-16.86-37.997-37.988v-111.36c0-21.132 16.991-37.968 38.125-37.968z" fill="none" stroke="#800000" stroke-linejoin="round" stroke-miterlimit="20" stroke-opacity=".50196" stroke-width="12.686"/>
  <g>
   <path d="m199.34 25h111.32c24.564 0 44.34 19.775 44.34 44.34v111.32c0 24.564-19.775 44.34-44.34 44.34h-111.32c-24.564 0-44.34-19.775-44.34-44.34v-111.32c0-24.564 19.775-44.34 44.34-44.34z" fill="url(#lg7)"/>
   <path d="m312.06 100.01c-48.531 0.52518-61.796 56.691-104.9 57.25-18.636 0.2354-34.53-12.554-52.158-27.699v51.652c0 24.249 19.797 43.791 44.361 43.791h111.32c24.564 0 44.319-19.543 44.319-43.791v-70.255c-12.032-6.6067-25.966-11.136-42.944-10.948z" fill="#00f" fill-rule="evenodd" opacity=".25"/>
   <rect x="180" y="50" width="33" height="150" rx="17.033" ry="17.033" fill="url(#lg6)"/>
  </g>
  <path d="m199.47 31.343h111.19c21.128 0 37.997 16.879 37.997 38.006v111.32c0 21.135-16.865 37.988-37.997 37.988h-111.32c-21.132 0-37.997-16.86-37.997-37.988v-111.36c0-21.132 16.991-37.968 38.125-37.968z" fill="none" stroke="#000080" stroke-linejoin="round" stroke-miterlimit="20" stroke-opacity=".50196" stroke-width="12.686"/>
 </g>
 <g transform="matrix(1.0339 0 0 1.0339 -15.861 45.884)">
  <g>
   <path d="m344.34 120h111.32c24.564 0 44.34 19.775 44.34 44.34v111.32c0 24.564-19.775 44.34-44.34 44.34h-111.32c-24.564 0-44.34-19.775-44.34-44.34v-111.32c0-24.564 19.775-44.34 44.34-44.34z" fill="url(#lg9)"/>
   <path d="m457.06 195.01c-48.531 0.52517-61.796 56.691-104.9 57.25-18.636 0.23541-34.53-12.554-52.158-27.699v51.652c0 24.249 19.797 43.791 44.361 43.791h111.32c24.564 0 44.319-19.543 44.319-43.791v-70.255c-12.032-6.6067-25.966-11.136-42.944-10.948z" fill="#c0c000" fill-rule="evenodd" opacity=".25"/>
   <rect x="325" y="145" width="33" height="150" rx="17.033" ry="17.033" fill="url(#lg8)"/>
  </g>
  <path d="m344.47 126.34h111.19c21.128 0 37.997 16.879 37.997 38.006v111.32c0 21.135-16.865 37.988-37.997 37.988h-111.32c-21.132 0-37.997-16.86-37.997-37.988v-111.36c0-21.132 16.991-37.968 38.125-37.968z" fill="none" stroke="#808000" stroke-linejoin="round" stroke-miterlimit="20" stroke-opacity=".50196" stroke-width="12.686"/>
 </g>
</svg>
